X: 160
T:Loftus Jones
M:4/4
L:1/8
F:http://blackrosetheband.googlepages.com/ABCTUNES.ABC May 2009
C:Turlough O'Carolan
Z:id:hn-carolan-5
K:G
"G"g4 "D"f2e2 | "G"d2c2  BcdB |"C"cB"D"AB  "G"G2 z2 | BcBA "D"G2A2 |
"G"BcdB "C"cdec | "G"d2cB "C"cBAG | "D"FGFE D3F | "Em"GAGF "C"E2c2 |
"G"dcdB "C"cB"D"cA | "Em"G2D2 E2F2 | "C"G2E2 F2G2 | "D"A2F2 G2A2 |"G"B2G2 A2B2 |
"C"c4 "D"d4 | "C"cBAG "D"FGAF | "G"G2DC "D"B,2D2 | "G"G3 A G4 :|
|: "D"A2F2 "G"G2E2 | "D"F2D2 E2F2 | "Em"G2B2 "D"F2B2 | "Em"E4"D"F4 |
"G"BcB2 "D"ABA2 | "G"GABc "D"B3A | "G"GABc "D"dcBA | "G"G2"D"F2 "Em"E4 |
"Em"B,EGE B,EGE | "D"DFDF DFDF | "Em"EGEG EGEG | "D"FAFA FAFA |
"Em"GBGB GBGB | GBGB GBGB | efg2 "D"f2gf | "C"e4 e2f2 |
"G"gbgb "D"fafa | "C"ecec "G"dBdB | "C"cAcA "G"BGBG | "D"AGFE DEFD |
"G"G2DC B,2D2 | "D"AGFE D2d2 | "G"cBAG "D"FGAF | "G"G3 A G4:|

